X: 74
T: Hugh Hopley
T: Longways for as many as will.
%R: slip-jig
B: Daniel Wright "Wright's Compleat Collection of Celebrated Country Dances" 1740 p.37
S: http://library.efdss.org/cgi-bin/dancebooks.cgi
Z: 2014 John Chambers <jc:trillian.mit.edu>
M: 9/4
L: 1/4
K: C
% - - - - - - - - - - - - - - - - - - - - - - - - -
[|\
c>dc e2f g3 | B2c d2e dBG |\
c>BA GEc D3 | c3 C2D E>DC |]
[|\
F>GF A>Bc E3 | FDD D>EF E2D |\
F>GF A>Bc E3 | c3 C2D E>DC |]
% - - - - - - - - - - - - - - - - - - - - - - - - -
%%begintext align
%% The 1st Cu. sett each right Elbows to one another
%% and then their left Elbows, and cast off, then
%% lead through the 3d Cu. cast up and clap hands,
%% then the 1st Man hey with the 2d Cu. and 1st Wo.
%% with the 3d Cu. at the same Time, then right
%% and left with the 2d Cu. quite round.
%%endtext
% - - - - - - - - - - - - - - - - - - - - - - - - -
%%sep 2 4 300
